X:721
T:Reel 721
M:4/4
K:Gmaj
L:1/8
dggf dcAB|cAfA gAfA|dggf dcAB|cAfA AGGc|dggf dcAB|cAA2 f2fg|agfd dcAB|cAfA AGG2|dgga bgaf|dcde fdc2|dggf gbag|fdcA AGG2|dgga bgag|dcde f2fg|abc'a d'bag|fdcA AGG2|
